X:1
T:Title
%%score { ( 1 3 4 ) | ( 2 5 6 ) }
L:1/8
M:4/4
K:Ab
V:1 treble nm="Grand Piano"
V:3 treble 
V:4 treble 
V:2 bass 
V:5 bass 
V:6 bass 
V:1
 z4 z GFE | G6[K:bass][K:treble] z2 | G6[K:bass][K:treble] z2 | [B,G]C [=A,F]4 G2 | %4
[M:5/8] F-F- F3 |[M:3/8] GFE |[M:4/4] G6[K:bass][K:treble] z2 | c6[K:bass][K:treble] z2 | B6 z2 | %9
[M:5/8] [G,E]-[G,E]- [G,E]3 |] %10
V:2
 z4 z B,A,G, | B,4- B,G,A,C | B,4- B,DC_C | z B, C,,2 z2 =A,2 |[M:5/8] [B,,A,]-[B,,A,]- [B,,A,]3 | %5
[M:3/8] B,A,G, |[M:4/4] B,4- B,DCG, | A,6 [=A,,_G,]2 | .[B,,G,]2 z E, z B, z/ A,3/2 | %9
[M:5/8] E,,C,B,, G,,E,, |] %10
V:3
 x8 | z[K:bass] E,,G,,B,, z B,[K:treble]CA | z[K:bass] E,,G,,B,, z[K:treble] BAE | x8 |[M:5/8] x5 | %5
[M:3/8] x3 |[M:4/4] z[K:bass] E,,G,,B,, z[K:treble] GAB | z[K:bass] A,,C,E, A,,2[K:treble] c2 | %8
 z B, G,2- G,G [A,F]<E |[M:5/8] x5 |] %10
V:4
 x8 | z4[K:bass] E,2[K:treble] z2 | z4[K:bass] E,2[K:treble] z2 | x8 |[M:5/8] x5 |[M:3/8] x3 | %6
[M:4/4] z4[K:bass] E,2[K:treble] z2 | x[K:bass] x5[K:treble] x2 | x8 |[M:5/8] x5 |] %10
V:5
 x8 | x8 | x8 | E,,2 z2 F,,4 |[M:5/8] x5 |[M:3/8] x3 |[M:4/4] x8 | x8 | z4 B,,4 |[M:5/8] x5 |] %10
V:6
 x8 | x8 | x8 | x8 |[M:5/8] x5 |[M:3/8] x3 |[M:4/4] x8 | x8 | z4 z2 B,,,2 |[M:5/8] x5 |] %10

